packages/axiom-materials/src/icon_svgs/qq-mono.svg

<svg height="16" viewBox="0 0 16 16" width="16" xmlns="http://www.w3.org/2000/svg"><path d="m6.72553503 0c3.56619037.00011117 5.01623367 3.0868446 5.01623367 6.15879302 0 .15952254-.0068089.45020131-.0088835.53445372l-.0005656.02248562.7196857 1.79621272c-.0006548.00019739-.0013096.00039475-.0019645.00059208.0018571-.00049417.0019645-.00048091.0019645-.00048091.1972076.51402944.3918585 1.04929149.5344839 1.50829395.6801107 2.1887383.4596695 3.0946262.2920318 3.1149695-.3600651.0434657-1.4014639-1.6476956-1.4014639-1.6476956 0 .9183278-.4430518 2.0994011-1.3977886 3.003874l-.1982685.1765019.1579812.0497441c.3735548.1246058.7920004.2988115 1.0733418.5065984.2888081.2132155.2527904.4306553.2006538.5183649-.2285563.3857444-3.92103079.2463428-4.98710828.126284l-.11939227.0124666c-1.19711619.1165817-4.64704091.2336922-4.867716-.1387506-.05202547-.0877096-.08815427-.3051494.20087613-.5183649.2812488-.2077869.69960177-.3819926 1.07325693-.5065984l.15660785-.0491992c-1.0915049-.9228755-1.5955994-2.2013712-1.5955994-3.1809208 0 0-1.04128757 1.6911613-1.40135274 1.6475845-.1677488-.0202322-.38819005-.926009.29203186-3.1148584.14262538-.45889129.33727624-.99426451.5344839-1.50829395l.00293522-.00005625-.00293522-.00005492.71968568-1.79621272c-.000667-.02101029-.00956024-.3745167-.00956024-.55705051 0-3.07172608 1.45015442-6.15857068 5.01634481-6.15868185z" fill-rule="evenodd" transform="translate(.99998)"/></svg>

<?xml version="1.0" encoding="UTF-8"?>
<svg width="16px" height="16px" viewBox="0 0 16 16" version="1.1" xmlns="http://www.w3.org/2000/svg" xmlns:xlink="http://www.w3.org/1999/xlink">
    <g id="Symbols/Social-Icons/Mono/QQ" stroke="none" stroke-width="1" fill="none" fill-rule="evenodd">
        <g id="Tencent-QQ" transform="translate(0.999980, 0.000000)" fill="#000000">
            <path d="M6.72553503,-8.43769499e-14 C10.2917254,0.000111165536 11.7417687,3.0868446 11.7417687,6.15879302 C11.7417687,6.31831556 11.7349598,6.60899433 11.7328852,6.69324674 L11.7323196,6.71573236 L12.4520053,8.51194508 C12.4513505,8.51214247 12.4506957,8.51233983 12.4500408,8.51253716 C12.4518979,8.51204299 12.4520053,8.51205625 12.4520053,8.51205625 C12.6492129,9.02608569 12.8438638,9.56134774 12.9864892,10.0203502 C13.6665999,12.2090885 13.4461587,13.1149764 13.278521,13.1353197 C12.9184559,13.1787854 11.8770571,11.4876241 11.8770571,11.4876241 C11.8770571,12.4059519 11.4340053,13.5870252 10.4792685,14.4914981 L10.281,14.668 L10.4389812,14.7177441 C10.812536,14.8423499 11.2309816,15.0165556 11.512323,15.2243425 C11.8011311,15.437558 11.7651134,15.6549978 11.7129768,15.7427074 C11.4844205,16.1284518 7.79194601,15.9890502 6.72586852,15.8689914 L6.60647625,15.881458 C5.40936006,15.9980397 1.95943534,16.1151502 1.73876025,15.7427074 C1.68673478,15.6549978 1.65060598,15.437558 1.93963638,15.2243425 C2.22088518,15.0165556 2.63923815,14.8423499 3.01289331,14.7177441 L3.16950116,14.6685449 C2.07799626,13.7456694 1.57390176,12.4671737 1.57390176,11.4876241 C1.57390176,11.4876241 0.532614188,13.1787854 0.172549017,13.1352086 C0.00480022326,13.1149764 -0.215641034,12.2091996 0.46458088,10.0203502 C0.607206262,9.56145891 0.801857116,9.02608569 0.999064776,8.51205625 L1.002,8.512 L0.999064776,8.51194508 L1.71875046,6.71573236 L1.71875046,6.71573236 C1.71808346,6.69472207 1.70919022,6.34121566 1.70919022,6.15868185 C1.70919022,3.08695577 3.15934464,0.000111165536 6.72553503,-8.43769499e-14 Z" id="Combined-Shape"></path>
        </g>
    </g>
</svg>
